!!!SOCIAL_FUNCTION:	songs of social dances
!!!PDT:	1958
!!!OTL: No_11_The_Dancers_Approach_the_Lodge_(a).krn
!!!REG: Northern California
!!!LANG: Non-Tone
!!!LING_GROUP: Penutian
**kern
*staff1
=1-
*clefF4
*k[f#c#g#d#]
*M3/4
8.F#\L
16F#\Jk
8.E\L
16F#\Jk
8E\
8r
=2
8.G#\L
16F#\Jk
8.E\L
16E\Jk
8F#\
8r
=3
8.F#\L
16E\Jk
8.E\L
16F#\Jk
4F#\
=4
8.G#\L
16F#\Jk
8.E\L
16F#\Jk
8F#\
8r
=5
8.G#\L
16F#\Jk
8.E\L
16F#\Jk
8F#\
8r
=6
8.F#\L
16E\Jk
8.E\L
16F#\Jk
4F#\
=7!|:
*M2/4
4B\
8F#\L
8F#\J
=8
4G#\
8.G#\L
16F#\Jk
=9
8E\L
8F#\J
8F#\
8r
=10
*M3/4
8.G#\L
16F#\Jk
8.E\L
16F#\Jk
8F#\
8r
=11
8.F#\L
16E\Jk
8.E\L
16F#\Jk
4F#\
=12
8.G#\L
16F#\Jk
8.E\L
16F#\Jk
8F#\
8r
=13
8.G#\L
16F#\Jk
8.E\L
16F#\Jk
4F#\
=14
8.F#\L
16E\Jk
8.E\L
16F#\Jk
4F#\
==:|!
*-
